X: 34
T: Obrońcá wieczny ludzi utrapionych
C: Mikołaj Gomółka
%%abc-version 2.0
%%abcx-abcm2ps-target-version 5.9.1 (29 Sep 2008)
%%abc-creator hum2abc beta
%%abcx-conversion-date 2021/10/04 07:59:09
%%abc-edited-by Anna Matuszewska
%%abcx-initial-encoding-date 2020-02-07
%%humdrum-veritas 2271433375
%%humdrum-veritas-data 617208629
%%linebreak <none>
%%barnumbers 0
L: 1/4
M: C|
N: Derived from pl-wn--sd-xvi-qu-273--035_gomolka-mikolaj--obronca-wieczny-ludzi-utrapionych.krn
%%staves [1 2 3 4]
V: 1
V: 2 clef=alto
V: 3 clef=tenor
V: 4 clef=bass
K: C
[V:1] A4A2A2 [I:setbarnb 3][|] 
[V:2] F4E2E2 [|] 
[V:3] D4C2C2 [|] 
[V:4] D,4A,2A,2 [|] 
[V:1] c4c2B2 [|] 
[V:2] A4G3F [|] 
[V:3] F4E2D2 [|] 
[V:4] F,G,A,B,C2G,2 [|] 
[V:1] A3G/F/GA2G [|] 
[V:2] E2D2E3D [|] 
[V:3] C3B,/A,/B,CB,2 [|] 
[V:4] A,2F,2E,2E,2 [|] 
[V:1] A4A4 [|] 
[V:2] ^C4E4 [|] 
[V:3] A,4C4 [|] 
[V:4] A,,4A,4 [|] 
[V:1] A2A2G3F [|] 
[V:2] F2>E2DCD2 [|] 
[V:3] D2C4B,2 [|] 
[V:4] F,2F,2G,4 [|] 
[V:1] E2F2EDD2 [|] 
[V:2] E2D2_B,2G,2 [|] 
[V:3] CB,A,2G,F,E,D, [|] 
[V:4] C,2D,2G,,2_B,,2 [|] 
[V:1] D2C2D2F2 [|] 
[V:2] A,4A,2D2 [|] 
[V:3] E,2E,2D,2A,2 [|] 
[V:4] A,,2A,,2D,2D,2 [|] 
[V:1] EDD4C2 [|] 
[V:2] B,2B,2A,4 [|] 
[V:3] G,2>F,2E,4 [|] 
[V:4] G,,2G,,2A,,4 [|] 
[V:1] D8 [|] 
[V:2] A,8 [|] 
[V:3] D,8 [|] 
[V:4] D,8 [|] 


